Numix-GalliumOS/32/categories/preferences-system.svg

<?xml version="1.0" encoding="UTF-8" standalone="no"?>
<svg
   xmlns:dc="http://purl.org/dc/elements/1.1/"
   xmlns:cc="http://creativecommons.org/ns#"
   xmlns:rdf="http://www.w3.org/1999/02/22-rdf-syntax-ns#"
   xmlns:svg="http://www.w3.org/2000/svg"
   xmlns="http://www.w3.org/2000/svg"
   xmlns:sodipodi="http://sodipodi.sourceforge.net/DTD/sodipodi-0.dtd"
   xmlns:inkscape="http://www.inkscape.org/namespaces/inkscape"
   width="32"
   height="32"
   viewBox="0 0 32 32"
   id="svg2"
   version="1.1"
   inkscape:version="0.91 r"
   sodipodi:docname="xfce-system-settings.svg">
  <metadata
     id="metadata12">
    <rdf:RDF>
      <cc:Work
         rdf:about="">
        <dc:format>image/svg+xml</dc:format>
        <dc:type
           rdf:resource="http://purl.org/dc/dcmitype/StillImage" />
      </cc:Work>
    </rdf:RDF>
  </metadata>
  <defs
     id="defs10" />
  <sodipodi:namedview
     pagecolor="#ffffff"
     bordercolor="#666666"
     borderopacity="1"
     objecttolerance="10"
     gridtolerance="10"
     guidetolerance="10"
     inkscape:pageopacity="0"
     inkscape:pageshadow="2"
     inkscape:window-width="1920"
     inkscape:window-height="1056"
     id="namedview8"
     showgrid="true"
     inkscape:zoom="14.75"
     inkscape:cx="20.59151"
     inkscape:cy="16.900215"
     inkscape:window-x="0"
     inkscape:window-y="24"
     inkscape:window-maximized="1"
     inkscape:current-layer="svg2">
    <inkscape:grid
       type="xygrid"
       id="grid4140" />
  </sodipodi:namedview>
  <path
     style="fill:none;stroke:#6aaf53;stroke-width:0.99999994;stroke-linecap:round;stroke-linejoin:round;stroke-miterlimit:4;stroke-dasharray:none"
     d="m 6.5787112,11.5 18.8425778,0 C 26.016016,11.5 26.5,11.944409 26.5,12.490424 l 0,7.019152 C 26.5,20.05559 26.016016,20.5 25.421289,20.5 l -18.8425778,0 C 5.9839842,20.5 5.5,20.05559 5.5,19.509576 l 0,-7.019152 C 5.5,11.944409 5.9839842,11.5 6.5787112,11.5 Z"
     id="path4"
     inkscape:connector-curvature="0" />
  <path
     style="fill:#6aaf53"
     d="M 7.3473973,13 C 7.1535014,13 7,13.133646 7,13.298945 l 0,5.40211 C 7,18.866354 7.1535014,19 7.3473973,19 l 8.3092457,0 C 15.8465,19 16,18.866354 16,18.701055 l 0,-5.40211 C 16,13.133646 15.8465,13 15.656643,13 Z M 9,17.5 l 0,-3 1,0 0,3 z m 2,0 0,-3 1,0 0,3 z m 2,0 0,-3 1,0 0,3 z"
     id="path6"
     inkscape:connector-curvature="0"
     sodipodi:nodetypes="sssssssssccccccccccccccc" />
</svg>

<svg xmlns="http://www.w3.org/2000/svg" viewBox="0 0 32 32">
 <path d="m 6.579 11.5 18.843 0 c 0.595 0 1.079 0.444 1.079 0.99 l 0 7.02 c 0 0.546 -0.484 0.99 -1.079 0.99 l -18.843 0 c -0.595 0 -1.079 -0.444 -1.079 -0.99 l 0 -7.02 c 0 -0.546 0.484 -0.99 1.079 -0.99" style="stroke-dasharray:none;fill:none;stroke-miterlimit:4;stroke:#6aaf53;stroke-linecap:round;stroke-linejoin:round;stroke-width:1"/>
 <path d="m 7.347 13 c -0.194 0 -0.347 0.134 -0.347 0.299 l 0 5.402 c 0 0.165 0.154 0.299 0.347 0.299 l 8.309 0 c 0.19 0 0.343 -0.134 0.343 -0.299 l 0 -5.402 c 0 -0.165 -0.153 -0.299 -0.343 -0.299 m -6.657 4.5 l 0 -3 1 0 0 3 z m 2 0 0 -3 1 0 0 3 z m 2 0 0 -3 1 0 0 3 z" style="fill:#6aaf53"/>
</svg>
